X:10902
T:Sally Gardens
R:Reel
B:Tuneworks Tunebook (https://www.tuneworks.co.uk/)
G:tuneworks
Z:Jon Warbrick <jon.warbrick@googlemail.com>
M:4/4
L:1/8
K:G
|: "G"G2 DG B2 GB | dBeB dBAB | d2 Bd efge | "C"dBAB "D"GEDE | 
"G"G2 DG B2 GB | dBeB dBAB | "C"d2 Bd efge | [1 "D"dBAB "G"G2 DE :| [2 "D"dBAB "G"G4 | 
|: "G"dggf g2 dg | "Em"gabg ageg | "Am"eaag a2 ea | "D"agbg ageg | 
"G"dggf g2 dg | "Em"gaag ageg | "C"d2 Bd efge | "D"dBAB "G"G4:|